X:1
T:Billie`s bounce
C:1945 - Charlie Parker
Z:Copyright © www.realbook.site
L:1/8
M:4/4
I:linebreak $
K:F
V:1 treble nm=" " snm=" "
V:1
 C |:"F" =B,CF^G AFDF- |"Bb7" FD F2"Bdim" z F2 D |"F" F2 z F- FDFD |"F7" ^GAFD F=GFF |$ %5
"Bb7" z2 z A B F2 _A- | A B3 _ecfe- |"F7" ef c2 z2 z =e- |"Am7" e2 GF ^F"D7"_ec^c |$ %9
"Gm7" d2 z g ^fdB^F |"C7" f2 z f eedd |"F" c2 z F- FD F2 | x z F2 D F2 z :| %13

